X:21
T:Hallelujah Chorus (Messiah)
C:Handel, G.F.
M:4/4
L:1/8
Q:1/4=120
K:D
|:d2|d4 d4|d4 d2d2|A4 A4|A4 A2d2|
B4 B4|B4 B2B2|A2A2 A2A2|A8|
f4 f4|e4 e4|d4 d4|A4 A2A2|
d4 d4|d2e2 d2c2|B4 B4|A8:|

